!!!COM: Aaron Copland
!!!OTL: [T710_Cop-13/24/3-1[25]1-5]
**kern	**dynam	**kern	**dynam	**kern	**dynam	**kern	**dynam	**kern	**dynam	**kern	**dynam	**kern	**dynam	**kern	**dynam	**kern	**dynam	**kern	**dynam	**kern	**dynam
*grp:A	*grp:A	*grp:A	*grp:A	*grp:A	*grp:A	*grp:A	*grp:A	*grp:A	*grp:A	*grp:A	*grp:A	*grp:B	*grp:B	*grp:A	*grp:A	*grp:A	*grp:A	*grp:B	*grp:B	*grp:B	*grp:B
*part11	*part11	*part10	*part10	*part9	*part9	*part8	*part8	*part7	*part7	*part6	*	*part5	*part5	*part4	*part4	*part3	*part3	*part2	*part2	*part1	*
*staff11	*	*staff10	*	*staff9	*	*staff8	*	*staff7	*	*staff6	*	*staff5	*	*staff4	*	*staff3	*	*staff2	*	*staff1	*
*I"Violoncello	*	*I"Viola	*	*I"Violin II	*	*I"Violin I	*	*I"Violin I	*	*I"Trumpet in C I. II. III.	*	*I"Horn in F I. II.	*	*I"Bassoon I. II.	*	*I"Bass Clarinet in Bb	*	*I"Clarinet in Bb I. II.	*	*I"Flute I. II.	*
*I'Vc.	*	*I'Vla.	*	*I'Vln. II	*	*I'Vln. I	*	*I'Vln. I	*	*I'C Tpt.	*	*I'Hn.	*	*I'Bsn.	*	*I'B. Cl.	*	*I'Cl.	*	*I'Fl.	*
!!pagebreak:original
*clefF4	*	*clefC3	*	*clefG2	*	*clefG2	*	*clefG2	*	*clefG2	*	*clefG2	*	*clefF4	*	*clefF4	*	*clefG2	*	*clefG2	*
*	*	*	*	*	*	*	*	*	*	*	*	*ITrd4c7	*	*	*	*ITrd1c2	*	*ITrd1c2	*	*	*
*k[]	*	*k[]	*	*k[]	*	*k[]	*	*k[]	*	*k[]	*	*k[b-]	*	*k[]	*	*k[b-e-]	*	*k[b-e-]	*	*k[]	*
*	*	*	*	*	*	*	*	*	*	*	*	*	*	*	*	*	*	*	*	*	*
*M6/8	*	*M6/8	*	*M6/8	*	*M6/8	*	*M6/8	*	*M6/8	*	*M6/8	*	*M6/8	*	*M6/8	*	*M6/8	*	*M6/8	*
=1	=1	=1	=1	=1	=1	=1	=1	=1	=1	=1	=1	=1	=1	=1	=1	=1	=1	=1	=1	=1	=1
*	*	*	*	*	*	*	*	*	*	*	*	*^	*	*	*	*	*	*	*	*	*
!	!	!	!	!	!	!	!	!	!	!LO:TX:a:t=[con sord.]	!LO:DY:t=%s espress.	!LO:TX:a:t=[con sord.]	!	!	!	!	!	!	!	!	!LO:TX:t=([quarter]=92)	!LO:DY:t=%s espress.
!	!LO:DY:ed=brack	!	!	!	!	!	!LO:DY:ed=brack	!	!LO:DY:ed=brack	!LO:TX:t=P:problem:Hanging slur not implemented yet	!LO:DY:ed=brack	!	!LO:TX:t=P:problem:Hanging slur not implemented yet	!LO:DY:ed=brack	!	!	!	!	!	!	!LO:TX:t=P:problem:Hanging slur not implemented yet	!LO:DY:ed=brack
(8FFL	pp	4%3r	.	4%3r	.	(8b~L	p	4b~ 4dd	p	4g 4b)	p	2.ryy	[2.D)	p	4%3r	.	4%3r	.	4%3r	.	4g 4dd)	p
8D)	.	.	.	.	.	8g)	.	.	.	.	.	.	.	.	.	.	.	.	.	.	.	.
8DDJ	.	.	.	.	.	(8b~J	.	[8b~ [8dd	.	8r	.	.	.	.	.	.	.	.	.	.	8r)	.
8DL	.	.	.	.	.	8gL)	.	8b] 8dd]	.	4.r	.	.	.	.	.	.	.	.	.	.	4.r	.
(8FF	.	.	.	.	.	(8cc~	.	4cc~ 4ee	.	.	.	.	.	.	.	.	.	.	.	.	.	.
8DJ)	.	.	.	.	.	8gJ)	.	.	.	.	.	.	.	.	.	.	.	.	.	.	.	.
=2	=2	=2	=2	=2	=2	=2	=2	=2	=2	=2	=2	=2	=2	=2	=2	=2	=2	=2	=2	=2	=2	=2
*	*	*	*	*	*	*	*	*	*	*	*	*	*	*	*^	*	*	*	*^	*	*	*
(4DD	.	4%3r	.	4%3r	.	(4b~	.	4b~ 4dd	.	4%3r	.	2.ryy	4.D_	.	2.ryy	4.r	.	4r	.	4rcc	4.rd	.	4%3r	.
!	!	!	!	!	!	!	!	!	!	!	!	!	!	!	!LO:TX:b:t=II.	!	!	!	!	!	!	!	!	!
!	!	!	!	!	!	!	!	!	!	!	!	!	!	!	!LO:TX:b:t=II.	!	!	!	!	!	!	!	!	!
8D)	.	.	.	.	.	8g)	.	8r	.	.	.	.	.	.	.	.	.	8r	.	8rcc	.	.	.	.
4.r	.	.	.	.	.	4.r	.	4.r	.	.	.	.	8D]	.	.	(>8FFL	p p	8FL	p	8rcc	8rd	.	.	.
.	.	.	.	.	.	.	.	.	.	.	.	.	8r	.	.	8D	.	(8d	.	(8ddL	(8bXL	p	.	.
.	.	.	.	.	.	.	.	.	.	.	.	.	8r	.	.	8DDJ)	.	8DJ)	.	8gJ)	8gJ)	.	.	.
*	*	*	*	*	*	*	*	*	*	*	*	*v	*v	*	*	*	*	*	*	*	*	*	*	*
=3	=3	=3	=3	=3	=3	=3	=3	=3	=3	=3	=3	=3	=3	=3	=3	=3	=3	=3	=3	=3	=3	=3	=3
(4D	.	4%3r	.	4%3r	.	4%3r	.	(4cc~ 4ee	.	4%3r	.	4%3r	.	2.ryy	(>4D	.	(4d	.	(4eeX	(4cc	.	4%3r	.
8FF)	.	.	.	.	.	.	.	8g)	.	.	.	.	.	.	8FF)	.	8F)	.	8g)	8g)	.	.	.
(4D	.	.	.	.	.	.	.	(4b~ 4dd	.	.	.	.	.	.	(>4D	.	(4d	.	(4dd	(4bX	.	.	.
8DD)	.	.	.	.	.	.	.	8g)	.	.	.	.	.	.	8DD)	.	8D)	.	8g)	8g)	.	.	.
!!LO:REH:t=25
=4	=4	=4	=4	=4	=4	=4	=4	=4	=4	=4	=4	=4	=4	=4	=4	=4	=4	=4	=4	=4	=4	=4	=4
*	*	*	*	*	*	*	*	*	*	*	*	*^	*	*	*	*	*	*	*	*	*	*	*
4r	.	4r	.	4r	.	4r	.	4r	.	4%3r	.	4rcc	4.rd	.	4ryy@	(4D	.	(4d	.	(4dd	(4bX	.	4%3r	.
!	!	!LO:TX:a:t=senza sord.	!	!	!	!	!	!	!	!	!	!LO:TX:b:t=II.	!	!	!	!	!	!	!	!	!	!	!	!
8r	.	8r	.	8r	.	8r	.	8r	.	.	.	8r	.	.	8ryy	8FF)	.	8F)	.	8g)	8g)	.	.	.
*	*	*	*	*	*	*	*	*	*	*	*	*	*	*	*	*	*	*	*	*v	*v	*	*	*
!	!	!	!	!	!	!	!	!	!	!	!	!LO:TX:a:t=I.	!	!	!	!	!	!	!	!	!	!	!
8r	.	4r	.	8r	.	8r	.	8r	.	.	.	4r	[4.D	pp	8rF	4.rEE	.	4.r	.	4.r	.	.	.
!LO:TX:a:t=pizz.	!	!	!	!	!	!LO:TX:a:t=unis.	!	!LO:TX:a:t=unis.	!	!	!	!	!	!	!LO:TX:a:t=I.	!	!	!	!	!	!	!	!
8DD	p	.	.	(8ddL	p	(8bL	p	(8bL	p	.	.	.	.	.	8DD'L	.	p	.	.	.	.	.	.
!	!	!LO:TX:a:t=pizz.	!	!	!	!	!	!	!	!	!	!	!	!	!	!	!	!	!	!	!	!	!
8r	.	8D	p	8gJ)	.	8gJ)	.	8gJ)	.	.	.	[8d	.	pp	8D'J	.	.	.	.	.	.	.	.
*	*	*	*	*	*	*	*	*	*	*	*	*	*	*	*v	*v	*	*	*	*	*	*	*
!!pagebreak:original
=5	=5	=5	=5	=5	=5	=5	=5	=5	=5	=5	=5	=5	=5	=5	=5	=5	=5	=5	=5	=5	=5	=5
!	!	!	!	!	!	!	!	!LO:TX:a:B:t=([quarter] = 164)	!	!	!	!	!	!	!	!	!	!	!	!	!	!
8FF	.	8r	.	(8dd^L	.	(8b^L	.	(8b^L	.	4%3r	.	2.d_	2.D_	.	8FF'L	.	4%3r	.	4r	.	4r	.
8r	.	8D	.	8g)	.	8g)	.	8g)	.	.	.	.	.	.	8D'	.	.	.	.	.	.	.
!	!	!	!	!	!	!	!	!	!	!	!	!	!	!	!	!	!	!	!LO:TX:a:t=1.	!	!	!
8BB-X	.	8r	.	8bJ	.	8ddJ	.	8ddJ	.	.	.	.	.	.	8BB-X'J	.	.	.	[8dd/	p	8r	.
8r	.	8D^	.	8gL	.	8gL	.	8gL	.	.	.	.	.	.	8D'L	.	.	.	4.dd/_	.	8r	.
!	!	!	!	!	!	!	!	!	!	!	!	!	!	!	!	!	!	!	!	!	!LO:TX:a:t=1.	!
8FF	.	8r	.	(8cc	.	(8ee	.	(8ee	.	.	.	.	.	.	8FF'	.	.	.	.	.	8r	.
.	.	.	.	.	.	.	.	.	.	.	.	.	.	.	.	.	.	.	.	.	(>8qdd/	.
8r	.	8D	.	8gJ)	.	8gJ)	.	8gJ)	.	.	.	.	.	.	8D'J	.	.	.	.	.	[8ddd)	.
=6	=6	=6	=6	=6	=6	=6	=6	=6	=6	=6	=6	=6	=6	=6	=6	=6	=6	=6	=6	=6	=6	=6
*	*	*	*	*	*	*	*	*	*	*	*	*	*	*	*^	*	*	*	*	*	*	*
8DD	.	8r	.	(8b^	.	(8dd^	.	(8dd^	.	4%3r	.	2.d_	2.D_	.	8DD'L	4.r	.	4%3r	.	2.dd/_	.	2.ddd_	.
8r	.	8D	.	4g)	.	4g)	.	4g)	.	.	.	.	.	.	8D'	.	.	.	.	.	.	.	.
8FF	.	8r	.	.	.	.	.	.	.	.	.	.	.	.	8FF'J	.	.	.	.	.	.	.	.
!	!	!	!	!	!	!	!	!	!	!	!	!	!	!	!LO:TX:b:t=II.	!	!	!	!	!	!	!	!
8r	.	8D^	.	(8ddL	.	(8b\L	.	(8bL	.	.	.	.	.	.	8D'	8rCC	.	.	.	.	.	.	.
8BB-X	.	8r	.	8g)	.	8g)	.	8g)	.	.	.	.	.	.	8r'	8BB-X'L	pp	.	.	.	.	.	.
8r	.	8D	.	(8ddJ	.	(8bJ	.	(8bJ	.	.	.	.	.	.	8r'	8D'J	.	.	.	.	.	.	.
=7	=7	=7	=7	=7	=7	=7	=7	=7	=7	=7	=7	=7	=7	=7	=7	=7	=7	=7	=7	=7	=7	=7	=7
8FF	.	8r	.	8gL)	.	8gL)	.	8gL)	.	4%3r	.	2.d_	2.D_	.	2.ryy	8FF'L	.	4%3r	.	2.dd/_	.	2.ddd_	.
8r	.	8D	.	8b	.	8dd	.	8dd	.	.	.	.	.	.	.	8D'	.	.	.	.	.	.	.
8BB-X	.	8r	.	8gJ	.	8gJ	.	8gJ	.	.	.	.	.	.	.	8BB-X'J	.	.	.	.	.	.	.
8r	.	8D^	.	(8ccL	.	(8ee/L	.	(8eeL	.	.	.	.	.	.	.	8D'L	.	.	.	.	.	.	.
8DD	.	8r	.	8g)	.	8g)	.	8g)	.	.	.	.	.	.	.	8DD'	.	.	.	.	.	.	.
8r	.	8D	.	(8bJ	.	(8ddJ	.	(8ddJ	.	.	.	.	.	.	.	8D'J	.	.	.	.	.	.	.
=8	=8	=8	=8	=8	=8	=8	=8	=8	=8	=8	=8	=8	=8	=8	=8	=8	=8	=8	=8	=8	=8	=8	=8
8FF	.	8r	.	4g)	.	4g)	.	4g)	.	4%3r	.	8d]	8D]	.	2.ryy	8FF'L	.	4%3r	.	4.dd/]	.	2.ddd]	.
8r	.	8D	.	.	.	.	.	.	.	.	.	[4d	[4D	.	.	8D'	.	.	.	.	.	.	.
8BB-X	.	8r	.	(8dd	.	(8b	.	(8b	.	.	.	.	.	.	.	8BB-X'J	.	.	.	.	.	.	.
8r	.	8D^	.	8g)	.	8g)	.	8g)	.	.	.	4.d_	4.D_	.	.	8D'/L	.	.	.	8r	.	.	.
8FF	.	8r	.	(8bL	.	(8dd/L	.	(8ddL	.	.	.	.	.	.	.	8FF'	.	.	.	[4dd/	.	.	.
8r	.	8D	.	8gJ)	.	8gJ)	.	8gJ)	.	.	.	.	.	.	.	8D'J	.	.	.	.	.	.	.
*	*	*	*	*	*	*	*	*	*	*	*	*v	*v	*	*	*	*	*	*	*	*	*	*
*	*	*	*	*	*	*	*	*	*	*	*	*	*	*v	*v	*	*	*	*	*	*	*
=||	=||	=||	=||	=||	=||	=||	=||	=||	=||	=||	=||	=||	=||	=||	=||	=||	=||	=||	=||	=||	=||
*-	*-	*-	*-	*-	*-	*-	*-	*-	*-	*-	*-	*-	*-	*-	*-	*-	*-	*-	*-	*-	*-
!!!system-decoration: [(s1,s2,s3,s4)][(s5,s6)][([(s7,s8)]s9,s10,s11)]
!!!RDF**kern: > = above
!!!RDF**kern: < = below
